svg/l/ZW.svg

<svg width="32" height="24" viewBox="0 0 32 24" fill="none" xmlns="http://www.w3.org/2000/svg">
<g clip-path="url(#clip0_270_67514)">
<rect width="32" height="24" fill="white"/>
<path fill-rule="evenodd" clip-rule="evenodd" d="M0 0V24H32V0H0Z" fill="#F7FCFF"/>
<mask id="mask0_270_67514" style="mask-type:luminance" maskUnits="userSpaceOnUse" x="0" y="0" width="32" height="24">
<path fill-rule="evenodd" clip-rule="evenodd" d="M0 0V24H32V0H0Z" fill="white"/>
</mask>
<g mask="url(#mask0_270_67514)">
<path fill-rule="evenodd" clip-rule="evenodd" d="M0 2V22H32V2H0Z" fill="#FECA00"/>
<path d="M0 8.25H-1.75V10V14V15.75H0H32H33.75V14V10V8.25H32H0Z" fill="#272727" stroke="#E31D1C" stroke-width="3.5"/>
<path fill-rule="evenodd" clip-rule="evenodd" d="M0 4V0H32V4H0ZM0 24V20H32V24H0Z" fill="#5EAA22"/>
</g>
<path d="M0.596961 -0.80227L-1 -1.99055V0V24V25.9609L0.587223 24.8094L16.9185 12.9614L18.0202 12.1622L16.9283 11.3497L0.596961 -0.80227Z" fill="#F7FCFF" stroke="#272727" stroke-width="2"/>
<mask id="mask1_270_67514" style="mask-type:luminance" maskUnits="userSpaceOnUse" x="-2" y="-4" width="22" height="32">
<path d="M0.596961 -0.80227L-1 -1.99055V0V24V25.9609L0.587223 24.8094L16.9185 12.9614L18.0202 12.1622L16.9283 11.3497L0.596961 -0.80227Z" fill="white" stroke="white" stroke-width="2"/>
</mask>
<g mask="url(#mask1_270_67514)">
<path fill-rule="evenodd" clip-rule="evenodd" d="M7.47845 14.2783L3.69951 17.3287L5.43289 13.2521L2.45447 10.3839H5.97007L7.41266 6.92505L8.94484 10.3839H12.4545L9.31872 13.2521L10.8881 17.3287L7.47845 14.2783Z" fill="#E31D1C"/>
<path fill-rule="evenodd" clip-rule="evenodd" d="M5.01759 8.42151C5.01759 8.42151 4.96273 8.28925 5.28655 8.17231C5.61038 8.05537 5.70915 7.80758 5.963 7.98995C6.21685 8.17231 6.37565 7.80567 6.44849 8.33153C6.52132 8.8574 6.72207 9.68662 6.72207 9.68662L10.0096 12.1573H9.39196C9.39196 12.1573 8.43011 13.5705 8.58892 14.8104C8.58892 14.8104 7.92528 14.7095 7.02577 14.7095C6.12626 14.7095 5.5371 14.925 5.5371 14.925L5.01759 13.0014C5.01759 13.0014 5.20569 12.6782 5.28655 12.4177C5.36741 12.1573 5.70223 12.1092 5.70223 11.902C5.70223 11.6948 5.37198 11.5211 5.5371 10.9848C5.70223 10.4484 5.70223 8.84406 5.70223 8.84406C5.70223 8.84406 5.18035 8.61457 5.28655 8.61457C5.39275 8.61457 5.63484 8.42151 5.46069 8.42151C5.28655 8.42151 5.01759 8.42151 5.01759 8.42151Z" fill="#FECA00"/>
<path d="M6.72207 9.68662L6.60057 9.71603L6.61112 9.75961L6.64697 9.78655L9.63525 12.0323H9.39196H9.32583L9.28862 12.0869L9.39196 12.1573L9.28858 12.087L9.28851 12.0871L9.28831 12.0874L9.28766 12.0884L9.28533 12.0918L9.27676 12.1048C9.26937 12.116 9.25872 12.1324 9.24532 12.1536C9.21852 12.1959 9.18068 12.2574 9.1359 12.335C9.04642 12.4899 8.92884 12.7096 8.81622 12.9691C8.61084 13.4423 8.41571 14.0618 8.45021 14.6662C8.37545 14.6572 8.27598 14.6463 8.15595 14.6355C7.8747 14.61 7.48007 14.5845 7.02577 14.5845C6.56612 14.5845 6.18536 14.6395 5.91872 14.6949C5.7947 14.7206 5.69523 14.7464 5.62386 14.7668L5.15161 13.0182C5.15358 13.0147 5.15563 13.0109 5.15778 13.007C5.17724 12.9716 5.204 12.9218 5.23337 12.8635C5.29145 12.7483 5.3624 12.595 5.40593 12.4548C5.43253 12.3691 5.50056 12.3144 5.59979 12.2398L5.6029 12.2375C5.6468 12.2045 5.70112 12.1637 5.74315 12.1152C5.78935 12.0618 5.82723 11.9921 5.82723 11.902C5.82723 11.8178 5.79368 11.7451 5.76377 11.6884C5.75127 11.6647 5.73956 11.6439 5.72828 11.6239C5.70858 11.5889 5.69025 11.5563 5.67156 11.5151C5.62094 11.4037 5.58389 11.2576 5.65657 11.0216C5.70171 10.8749 5.73358 10.6637 5.75691 10.4368C5.78048 10.2076 5.79609 9.95414 5.80647 9.7188C5.81685 9.48325 5.82204 9.26473 5.82463 9.10515C5.82593 9.02533 5.82658 8.96019 5.8269 8.91494L5.82719 8.86263L5.82722 8.84888L5.82723 8.84532L5.82723 8.8444L5.82723 8.84415V8.84409L5.70223 8.84406H5.82723V8.76247L5.75255 8.72963L5.75255 8.72963L5.75254 8.72963L5.75248 8.7296L5.75224 8.72949L5.75119 8.72903L5.747 8.72718L5.73095 8.72004L5.67413 8.69443C5.63531 8.67676 5.58684 8.65435 5.53881 8.63125C5.54752 8.62421 5.55588 8.617 5.56376 8.60968C5.5812 8.5935 5.59938 8.57403 5.6141 8.55197C5.62697 8.53268 5.64722 8.49673 5.64688 8.45075C5.64644 8.39137 5.61256 8.34428 5.56666 8.31965C5.52996 8.29996 5.49023 8.29651 5.46069 8.29651H5.45967H5.45865H5.45762H5.4566H5.45557H5.45453H5.4535H5.45246H5.45143H5.45039H5.44934H5.4483H5.44725H5.4462H5.44515H5.4441H5.44305H5.44199H5.44093H5.43988H5.43881H5.43775H5.43669H5.43562H5.43455H5.43348H5.43241H5.43133H5.43026H5.42918H5.4281H5.42702H5.42594H5.42485H5.42377H5.42268H5.42159H5.4205H5.41941H5.41832H5.41722H5.41613H5.41503H5.41393H5.41283H5.41173H5.41062H5.40952H5.40841H5.4073H5.40619H5.40508H5.40397H5.40286H5.40174H5.40063H5.39951H5.39839H5.39727H5.39615H5.39503H5.39391H5.39278H5.39166H5.39053H5.3894H5.38827H5.38715H5.38601H5.38488H5.38375H5.38262H5.38148H5.38034H5.37921H5.37807H5.37693H5.37579H5.37465H5.37351H5.37237H5.37122H5.37008H5.36893H5.36779H5.36664H5.36549H5.36435H5.3632H5.36205H5.3609H5.35975H5.3586H5.35744H5.35629H5.35514H5.35398H5.35283H5.35167H5.35052H5.34936H5.3482H5.34705H5.34589H5.34473H5.34357H5.34241H5.34125H5.34009H5.33893H5.33777H5.33661H5.33545H5.33429H5.33312H5.33196H5.3308H5.32964H5.32847H5.32731H5.32615H5.32498H5.32382H5.32265H5.32149H5.32032H5.31916H5.31799H5.31683H5.31566H5.3145H5.31333H5.31217H5.31115C5.31692 8.29431 5.32287 8.2921 5.32901 8.28988C5.4215 8.25648 5.49677 8.21409 5.55954 8.17476C5.58755 8.1572 5.61043 8.14212 5.63078 8.1287C5.6604 8.10917 5.68467 8.09317 5.71167 8.07819C5.75183 8.05591 5.7756 8.04984 5.79428 8.05005C5.81145 8.05026 5.84074 8.05603 5.89007 8.09147C6.03825 8.19792 6.19311 8.17102 6.25534 8.16021C6.26496 8.15854 6.27236 8.15726 6.27719 8.15691C6.28889 8.17698 6.30805 8.2287 6.32467 8.34868C6.36178 8.6166 6.43104 8.95927 6.49044 9.2328C6.52023 9.37003 6.54774 9.49072 6.5678 9.57711C6.57783 9.62032 6.58601 9.65497 6.59168 9.67886L6.59824 9.70634L6.59997 9.71352L6.60041 9.71537L6.60053 9.71585L6.60056 9.71598L6.60057 9.71601L6.72207 9.68662Z" stroke="#0A0A0A" stroke-width="0.25"/>
</g>
</g>
<defs>
<clipPath id="clip0_270_67514">
<rect width="32" height="24" fill="white"/>
</clipPath>
</defs>
</svg>

<svg width="32" height="24" fill="none" xmlns="http://www.w3.org/2000/svg">
  <mask id="a" maskUnits="userSpaceOnUse" x="0" y="0" width="32" height="24">
    <path fill="#fff" d="M0 0h32v24H0z"/>
  </mask>
  <g mask="url(#a)">
    <path fill-rule="evenodd" clip-rule="evenodd" d="M0 0v24h32V0H0z" fill="#F7FCFF"/>
    <mask id="b" maskUnits="userSpaceOnUse" x="0" y="0" width="32" height="24">
      <path fill-rule="evenodd" clip-rule="evenodd" d="M0 0v24h32V0H0z" fill="#fff"/>
    </mask>
    <g mask="url(#b)">
      <path fill-rule="evenodd" clip-rule="evenodd" d="M0 2v20h32V2H0z" fill="#FECA00"/>
      <path d="M0 8.25h-1.75v7.5h35.5v-7.5H0z" fill="#272727" stroke="#E31D1C" stroke-width="3.5"/>
      <path fill-rule="evenodd" clip-rule="evenodd" d="M0 4V0h32v4H0zm0 20v-4h32v4H0z" fill="#5EAA22"/>
    </g>
    <path d="M.597-.802L-1-1.991V25.96l1.587-1.15 16.331-11.85 1.102-.799-1.092-.812L.597-.802z" fill="#F7FCFF" stroke="#272727" stroke-width="2"/>
    <mask id="c" maskUnits="userSpaceOnUse" x="-2" y="-4" width="22" height="32">
      <path d="M.597-.802L-1-1.991V25.96l1.587-1.15 16.331-11.85 1.102-.799-1.092-.812L.597-.802z" fill="#fff" stroke="#fff" stroke-width="2"/>
    </mask>
    <g mask="url(#c)">
      <path fill-rule="evenodd" clip-rule="evenodd" d="M7.478 14.278L3.7 17.328l1.733-4.076-2.979-2.868H5.97l1.443-3.459 1.532 3.459h3.51l-3.136 2.868 1.57 4.077-3.41-3.05z" fill="#E31D1C"/>
      <path fill-rule="evenodd" clip-rule="evenodd" d="M5.018 8.422s-.055-.133.269-.25c.323-.117.422-.364.676-.182.254.182.413-.184.485.342.073.525.274 1.355.274 1.355l3.288 2.47h-.618s-.962 1.413-.803 2.653c0 0-.664-.1-1.563-.1-.9 0-1.489.215-1.489.215l-.52-1.924s.189-.323.27-.583c.08-.26.415-.309.415-.516 0-.207-.33-.38-.165-.917s.165-2.14.165-2.14-.522-.23-.415-.23c.106 0 .348-.193.174-.193h-.443z" fill="#FECA00"/>
      <path d="M6.722 9.687l-.121.029.01.044.036.027 2.988 2.245h-.309l-.037.055.103.07-.103-.07h0l-.001.001-.003.004-.008.013a5.17 5.17 0 00-.14.23 6.29 6.29 0 00-.32.634c-.206.473-.401 1.093-.367 1.697a12.662 12.662 0 00-1.424-.082c-.46 0-.84.056-1.107.11a4.123 4.123 0 00-.295.073l-.472-1.749.006-.011c.02-.035.046-.085.075-.143.058-.116.13-.269.173-.41.027-.085.095-.14.194-.214l.003-.002c.044-.034.098-.074.14-.123a.32.32 0 00.084-.213.459.459 0 00-.063-.214 2.524 2.524 0 00-.036-.064 1.333 1.333 0 01-.056-.109c-.051-.111-.088-.257-.015-.493.045-.147.077-.358.1-.585.023-.23.04-.483.05-.718a22.485 22.485 0 00.02-.804v-.07h0v0h-.125.125v-.083l-.074-.032h0l-.002-.001-.004-.002-.016-.007-.057-.026a7.24 7.24 0 01-.135-.063.48.48 0 00.075-.079.181.181 0 00.033-.101.149.149 0 00-.08-.131.223.223 0 00-.106-.023h-.008 0-.002 0-.002 0-.002 0-.002 0-.013 0-.002 0-.002 0-.008 0-.002 0-.01 0-.002 0-.008 0-.01 0-.008 0-.002 0-.007 0-.007 0-.008 0-.008 0-.007 0-.007 0-.007 0-.007 0-.007 0-.002 0a1.189 1.189 0 00.248-.122l.07-.046a.862.862 0 01.082-.05c.04-.023.064-.03.082-.029.017 0 .047.006.096.041a.463.463 0 00.387.066c.012.02.031.072.048.192.037.268.106.61.165.884a24.83 24.83 0 00.102.446l.006.027.002.008v.001h0v.001h0l.122-.03z" stroke="#0A0A0A" stroke-width=".25"/>
    </g>
  </g>
</svg>
